clients/portal/components/icon/svgs/login.svg

<svg xmlns="http://www.w3.org/2000/svg" enable-background="new 0 0 24 24" height="24" viewBox="0 0 24 24" width="24"><g><rect fill="currentColor" height="24" width="24"/></g><g><path d="M11,7L9.6,8.4l2.6,2.6H2v2h10.2l-2.6,2.6L11,17l5-5L11,7z M20,19h-8v2h8c1.1,0,2-0.9,2-2V5c0-1.1-0.9-2-2-2h-8v2h8V19z"/></g></svg>

<svg width="24" height="24" viewBox="0 0 24 24" fill="none" xmlns="http://www.w3.org/2000/svg">
<path d="M11 7L9.6 8.4L12.2 11H2V13H12.2L9.6 15.6L11 17L16 12L11 7ZM20 19H12V21H20C21.1 21 22 20.1 22 19V5C22 3.9 21.1 3 20 3H12V5H20V19Z" fill="#475569"/>
</svg>
